svgs/light/face-expressionless.svg

<svg xmlns="http://www.w3.org/2000/svg" viewBox="0 0 512 512"><!--! Font Awesome Pro 6.4.0 by @fontawesome - https://fontawesome.com License - https://fontawesome.com/license (Commercial License) Copyright 2023 Fonticons, Inc. --><path d="M480 256A224 224 0 1 0 32 256a224 224 0 1 0 448 0zM0 256a256 256 0 1 1 512 0A256 256 0 1 1 0 256zm160 80H352c8.8 0 16 7.2 16 16s-7.2 16-16 16H160c-8.8 0-16-7.2-16-16s7.2-16 16-16zM128 208c0-8.8 7.2-16 16-16h64c8.8 0 16 7.2 16 16s-7.2 16-16 16H144c-8.8 0-16-7.2-16-16zm176-16h64c8.8 0 16 7.2 16 16s-7.2 16-16 16H304c-8.8 0-16-7.2-16-16s7.2-16 16-16z"/></svg>

<svg xmlns="http://www.w3.org/2000/svg" viewBox="0 0 512 512"><!--! Font Awesome Pro 6.3.0 by @fontawesome - https://fontawesome.com License - https://fontawesome.com/license (Commercial License) Copyright 2023 Fonticons, Inc. --><path d="M352 336C360.8 336 368 343.2 368 352C368 360.8 360.8 368 352 368H160C151.2 368 144 360.8 144 352C144 343.2 151.2 336 160 336H352zM128 208C128 199.2 135.2 192 144 192H208C216.8 192 224 199.2 224 208C224 216.8 216.8 224 208 224H144C135.2 224 128 216.8 128 208zM368 192C376.8 192 384 199.2 384 208C384 216.8 376.8 224 368 224H304C295.2 224 288 216.8 288 208C288 199.2 295.2 192 304 192H368zM512 256C512 397.4 397.4 512 256 512C114.6 512 0 397.4 0 256C0 114.6 114.6 0 256 0C397.4 0 512 114.6 512 256zM256 32C132.3 32 32 132.3 32 256C32 379.7 132.3 480 256 480C379.7 480 480 379.7 480 256C480 132.3 379.7 32 256 32z"/></svg>
